swiss/communes/0700.svg

<svg clip-rule="evenodd" fill-rule="evenodd" width="600" height="760" xml:space="preserve" xmlns="http://www.w3.org/2000/svg"><path d="M3.96 5.017v452.812c0 164.115 132.547 297.156 296.04 297.156s296.04-133.04 296.04-297.156V5.016z" fill="#f00000" fill-rule="nonzero"/><path d="M129.4 40.096c-7.18.013-11.457 9.553-10.58 13.13s2.53 6.47 2.804 7.52c-8.914-5.785-17.82.459-17.463 8.668.312 7.154 4.72 14.433 13.002 13.002 1.383-.24 3.278-1.816 5.354-3.108v39.309h15.04V79.819c1.026.93 3.125 2.424 4.08 2.597 8.77 1.586 13.454-5.856 13.002-13.002-.746-11.798-9.609-11.188-16.188-8.413.27-1.043 2.549-6.776 2.549-7.903 0-7.16-4.44-13.002-11.6-13.002zm170.611 0c-7.179.014-11.456 9.554-10.58 13.129.878 3.576 2.53 6.47 2.805 7.521-8.914-5.786-17.82.459-17.463 8.667.31 7.154 5.84 13.003 13.002 13.003 1.9 0 3.986-1.93 5.353-3.107v39.307h15.041V79.818c1.09 1.184 2.655 2.598 4.08 2.598 7.16 0 13.453-5.855 13-13.003-.745-11.798-9.607-11.187-16.188-8.412.27-1.043 2.55-6.777 2.55-7.904 0-7.16-4.44-13.001-11.6-13.001zm169.899 0c-7.18.013-11.458 9.553-10.58 13.13s2.529 6.47 2.803 7.52c-8.914-5.785-17.82.459-17.463 8.668.312 7.154 5.841 13.002 13.002 13.002 1.9 0 3.886-1.867 5.354-3.108v39.309h15.04V79.819c1.077 1.083 2.656 2.597 4.08 2.597 7.16 0 13.454-5.856 13.002-13.002-.747-11.798-9.609-11.188-16.188-8.413.27-1.043 2.549-6.776 2.549-7.903 0-7.16-4.44-13.002-11.6-13.002z" fill="#fff" fill-rule="nonzero" stroke="#000" stroke-width="2.94"/><path d="M125.226 112.284c-1.83-1.048-3.581-1.907-6.027-1.907-7.926 0-14.053 6.487-14.404 14.404-.363 8.162 6.144 14.59 14.404 14.404 1.16-.026 5.037-1.792 6.747-2.706l-9.886 29.435c-2.629-3.357-8.585-6.589-13.177-6.589-7.926 0-14.404 6.48-14.404 14.405s6.478 14.404 14.404 14.404c2.283 0 6.914-.418 7.304-.486l-6.54 23.812c-2.45-1.946-5.553-3.186-8.923-3.186-7.925 0-14.403 6.478-14.403 14.404s6.478 14.404 14.403 14.404c1.09 0 2.166-.28 3.187-.51l-25.19 75.717-.049 296.019 456.465.605-1.658-296.616-23.327-79.796c.816.145 1.693.382 2.55.382 7.863 0 14.277-6.413 14.277-14.276s-6.414-14.277-14.277-14.277c-3.772 0-7.139 1.556-9.688 3.951l-7.138-24.473c.172.006.337.127.51.127 7.863 0 14.277-6.413 14.277-14.276s-6.414-14.277-14.277-14.277c-3.046 0-5.841.92-8.158 2.549l-7.393-25.11c2.174 1.345 4.649 2.166 7.393 2.166 7.863 0 14.276-6.413 14.276-14.276s-6.413-14.277-14.276-14.277c-5.222 0-9.747 2.809-12.237 7.01-2.493-4.139-7.056-7.01-12.237-7.01-7.863 0-14.276 6.413-14.276 14.277s6.413 14.276 14.276 14.276c2.54 0 4.818-.746 6.883-1.912l-6.883 24.984c-2.328-1.659-5.084-2.677-8.158-2.677-7.864 0-14.277 6.413-14.277 14.277s6.413 14.276 14.277 14.276c.384 0 .771-.098 1.147-.127l-6.883 25.366c-2.609-2.915-6.362-4.844-10.58-4.844-7.864 0-14.277 6.413-14.277 14.277s6.413 14.276 14.277 14.276c1.475 0 2.868-.349 4.206-.765l-21.797 79.923-17.674-33.2c6.754 0 11.117-6.394 11.117-13.07 0-8.221-5.66-14.453-13.524-14.453-3.549 0-7.841 1.42-10.335 3.57l-14.15-24.092c7.33-.581 13.13-6.67 13.13-14.15 0-7.863-6.414-14.276-14.277-14.276-4.915 0-9.294 2.584-11.854 6.374l-15.934-27.278c1.055.249 2.182.51 3.314.51 7.863 0 14.277-6.414 14.277-14.277s-6.414-14.277-14.277-14.277c-6.583 0-12.008 4.51-13.64 10.58l-17.09-29.649c7.507-.399 12.375-6.037 12.375-13.642 0-7.864-6.414-14.277-14.277-14.277-5.221 0-9.362 3.637-12.435 7.434-7.22-7.553-8.461-7.56-12.04-7.434-7.858.277-14.276 6.413-14.276 14.277s6.413 14.276 14.277 14.276h.127l-20.698 32.632c-.979-6.91-6.841-12.237-14.021-12.237-7.864 0-14.277 6.413-14.277 14.277s6.413 14.276 14.277 14.276c1.92 0 3.68-.457 5.353-1.147l-17.08 29.7c-2.312-4.746-7.116-8.158-12.747-8.158-7.864 0-14.277 6.413-14.277 14.277s6.413 14.276 14.277 14.276c.383 0 .771-.098 1.147-.127l-14.787 25.748c-2.613-3.11-6.457-5.226-10.835-5.226-7.862 0-14.276 6.413-14.276 14.277 0 7.054 5.121 12.89 11.855 14.022l-15.855 28.138-16.777-53.632-5.609-19.63c1.25.355 2.588.636 3.952.636 7.925 0 14.404-6.478 14.404-14.404s-6.479-14.404-14.404-14.404c-4.195 0-7.954 1.846-10.58 4.717l-7.139-24.984c.46.044.931.127 1.403.127 7.925 0 14.404-6.478 14.404-14.404s-6.48-14.404-14.404-14.404c-3.24 0-6.264 1.12-8.668 2.932l-7.139-25.366c2.215 1.397 4.839 2.294 7.648 2.294 7.926 0 14.404-6.478 14.404-14.404s-6.478-14.404-14.404-14.404c-5.227 0-11.008 2.46-13.512 6.647 0 0-2.895-3.572-4.934-4.74z" fill="#fff" stroke="#000" stroke-miterlimit="6" stroke-width="4.077"/><path d="m71.777 380.098 455.985.49M70.51 419.994l457.376-.203M72.149 537.143l454.72-.245m-455.21-39.2 456.68.49M73.129 457.518h453.25" fill="none" stroke="#000" stroke-width="1.96"/><path d="m849.18 344.33-61.934-.225 31.161-53.524z" stroke="#000" fill="none" transform="matrix(3.4986 0 0 3.603 -2561.993 -910.63)"/><path d="m501.105 314.745-30.52-142.07-33.198 142.962z" fill="#fff" stroke="#000" stroke-linecap="round" stroke-miterlimit="8" stroke-width="2.94"/><path d="m486.287 316.529-17.313-73.713-17.312 74.07zm41.846-69.599v70.857h-30.877zm-114.043-.187-.357 70.858h31.056z" fill="#fff" stroke="#000" stroke-linecap="round" stroke-miterlimit="8" stroke-width="2.94"/><path fill="#fff" stroke="#000" stroke-width="4.018" d="M393.452 312.243h146.902v24.53H393.452z"/><path d="M300.806 225.957c-16.604-.427-17.653 15.123-10.375 25.46.182.26.1.625.116.94-.312-.017-.69.086-.933-.118-11.3-9.455-25.64-6.774-25.297 10.442.298 14.921 14.966 17.686 25.297 10.443.26-.182.62-.101.933-.118-.016.315.104.71-.116.94-10.754 11.082-3.954 25.792 10.375 25.46 14.867-.345 20.743-15.58 10.375-25.46-.23-.22-.1-.625-.116-.94.312.017.668-.058.933.118 13.024 8.608 25.284 4.96 25.296-10.443.018-20.042-16.024-16.051-25.296-10.442-.272.165-.62.101-.933.118.016-.315-.089-.696.116-.94 12.415-14.738 1.271-26.176-10.375-25.46z" stroke="#000" stroke-width="3.744" fill="none"/><path d="M955.25 365.25c0 7.543-7.956 13.75-17.625 13.75S920 372.793 920 365.25s7.956-13.75 17.625-13.75 17.625 6.207 17.625 13.75z" stroke="#000" fill="none" transform="matrix(2.2558 0 0 2.9101 -1814.253 -800.263)"/><path d="M958.84 366.31c0 7.952-6.783 14.496-15.026 14.496s-15.026-6.544-15.026-14.496 6.783-14.496 15.026-14.496 15.026 6.544 15.026 14.496z" stroke="#000" fill="none" transform="matrix(3.602 0 0 3.7578 -3098.837 -1113.912)"/><g fill="#fff" stroke="#000"><path d="M470.55 350.14c-8.99 0-19.9 12.636-19.9 30.094v93.262h38.542v-93.262c0-16.23-9.647-30.094-18.641-30.094z" fill-rule="nonzero" stroke-width="4.079"/><path stroke-width="3.386" d="M451.339 455.622h37.388v17.209h-37.388z"/></g><path d="M295.118 332.42v22.817h-20.012v12.238h20.012v33.652c-37.395 26.16-61.268 50.874-64.34 74.186v117.776h137.289s.355-115.993 0-117.776c-5.252-26.41-26.344-52.04-59.942-74.385v-33.453h20.522v-12.238h-20.522v-22.816z" fill="#fff" fill-rule="nonzero" stroke="#000" stroke-width="4.841"/><path d="M309.925 483.686h44.868m-109.071 0h43.824" stroke-width="4.079" fill="none" stroke="#000"/><path d="M301.185 418.18c-30.428 22.705-52.513 47.151-55.012 67.383v102.214h107.79c-1.138-.57.089-100.803 0-102.214-1.215-19.447-30.418-50.059-52.774-67.382z" stroke="#000" stroke-width="4.067" fill="none"/><g fill="none" stroke="#000"><path d="M277.293 474.875v17.613m42.829-18.592v18.592" stroke-width="4.079"/><path d="M311.801 555.068h41.132" stroke-width="3.916"/><path d="M320.122 546.38v17.225" stroke-width="3.63"/><path d="M246.538 555.068h41.132" stroke-width="3.916"/><path d="M279.332 546.38v17.225" stroke-width="3.63"/></g><path d="m301.098 418.3.106 174.395" fill="none" stroke="#000" stroke-width="4.079"/><path d="m311.679 525.593-21.451.236" fill="none" stroke="#000" stroke-width="3.671"/><path d="m161.133 312.615-30.52-142.07-33.198 142.962z" fill="#fff" stroke="#000" stroke-linecap="round" stroke-miterlimit="8" stroke-width="2.94"/><path d="m146.315 314.399-17.312-73.713-17.313 74.07zm38.906-69.599v70.857h-30.877zm-112.083-.187-.357 70.858h31.056z" fill="#fff" stroke="#000" stroke-linecap="round" stroke-miterlimit="8" stroke-width="2.94"/><path fill="#fff" stroke="#000" stroke-width="4.018" d="M58.97 312.243h146.902v24.53H58.97z"/><path d="M192.199 336.978v240.345m211.68-240.345V576.5" fill="none" stroke="#000" stroke-width="2.94"/><g fill="#fff" stroke="#000"><path stroke-width="3.097" d="M201.352 587.25h196.774v21.375H201.352z"/><path d="M131.008 351.178c-9.475.035-19.901 11.657-19.901 30.093v93.264h38.541V381.27c0-19.041-8.7-30.13-18.64-30.093z" fill-rule="nonzero" stroke-width="4.077"/><path stroke-width="3.401" d="M111.77 456.655h37.39v17.21h-37.39z"/></g><path d="M94.199 337.713v41.999m78.4-41.999v43.365m-78.4 38.955v37.485m78.4-37.975v37.975m-78.4 40.122v39.254m78.4-40.176v39.935m-39.2-.039v40.222" stroke-width=".98" fill="none" stroke="#000"/><path fill="#fff" stroke="#000" stroke-width="4.077" d="M57.038 577.548h151.44v34.732H57.038z"/><path d="m133.399 497.414.245-22.008m87.955-145.288v50.96m147-50.96v50.96m0 39.2v37.24m-147-37.24v37.24m29.4-76.44v39.2m88.2-39.2v39.2m88.2-82.32v43.12m0 39.2v37.24m0 41.16v38.103m78.4-198.823v43.12m0 39.2v37.24m0 41.16v37.24m-39.2 1.96v39.2" stroke-width=".98" fill="none" stroke="#000"/><path fill="#fff" stroke="#000" stroke-width="4.077" d="M391.521 577.548h151.44v34.732H391.52z"/><path d="M466.599 498.678v-25.48" fill="none" stroke="#000" stroke-width=".98"/><path d="M3.96 5.017v452.812c0 164.115 132.547 297.156 296.04 297.156s296.04-133.04 296.04-297.156V5.016z" fill="none" stroke="#000" stroke-width="5.921"/></svg>

<?xml version="1.0" encoding="UTF-8"?>
<svg clip-rule="evenodd" fill-rule="evenodd" width="600" height="760" viewBox="0 0 600 760" xml:space="preserve" xmlns="http://www.w3.org/2000/svg"><path d="M3.96 5.017v452.812c0 164.115 132.547 297.156 296.04 297.156s296.04-133.04 296.04-297.156V5.016z" fill="#f00000" fill-rule="nonzero"/><path d="M129.4 40.096c-7.18.013-11.457 9.553-10.58 13.13s2.53 6.47 2.804 7.52c-8.914-5.785-17.82.459-17.463 8.668.312 7.154 4.72 14.433 13.002 13.002 1.383-.24 3.278-1.816 5.354-3.108v39.309h15.04V79.819c1.026.93 3.125 2.424 4.08 2.597 8.77 1.586 13.454-5.856 13.002-13.002-.746-11.798-9.609-11.188-16.188-8.413.27-1.043 2.549-6.776 2.549-7.903 0-7.16-4.44-13.002-11.6-13.002zM300.011 40.096c-7.179.014-11.456 9.554-10.58 13.129.878 3.576 2.53 6.47 2.805 7.521-8.914-5.786-17.82.459-17.463 8.667.31 7.154 5.84 13.003 13.002 13.003 1.9 0 3.986-1.93 5.353-3.107v39.307h15.041V79.818c1.09 1.184 2.655 2.598 4.08 2.598 7.16 0 13.453-5.855 13-13.003-.745-11.798-9.607-11.187-16.188-8.412.27-1.043 2.55-6.777 2.55-7.904 0-7.16-4.44-13.001-11.6-13.001zM469.91 40.096c-7.18.013-11.458 9.553-10.58 13.13s2.529 6.47 2.803 7.52c-8.914-5.785-17.82.459-17.463 8.668.312 7.154 5.841 13.002 13.002 13.002 1.9 0 3.886-1.867 5.354-3.108v39.309h15.04V79.819c1.077 1.083 2.656 2.597 4.08 2.597 7.16 0 13.454-5.856 13.002-13.002-.747-11.798-9.609-11.188-16.188-8.413.27-1.043 2.549-6.776 2.549-7.903 0-7.16-4.44-13.002-11.6-13.002z" fill="#fff" fill-rule="nonzero" stroke="#000" stroke-width="2.94"/><path d="M125.226 112.284c-1.83-1.048-3.581-1.907-6.027-1.907-7.926 0-14.053 6.487-14.404 14.404-.363 8.162 6.144 14.59 14.404 14.404 1.16-.026 5.037-1.792 6.747-2.706l-9.886 29.435c-2.629-3.357-8.585-6.589-13.177-6.589-7.926 0-14.404 6.48-14.404 14.405s6.478 14.404 14.404 14.404c2.283 0 6.914-.418 7.304-.486l-6.54 23.812c-2.45-1.946-5.553-3.186-8.923-3.186-7.925 0-14.403 6.478-14.403 14.404s6.478 14.404 14.403 14.404c1.09 0 2.166-.28 3.187-.51l-25.19 75.717-.049 296.019 456.465.605-1.658-296.616-23.327-79.796c.816.145 1.693.382 2.55.382 7.863 0 14.277-6.413 14.277-14.276s-6.414-14.277-14.277-14.277c-3.772 0-7.139 1.556-9.688 3.951l-7.138-24.473c.172.006.337.127.51.127 7.863 0 14.277-6.413 14.277-14.276s-6.414-14.277-14.277-14.277c-3.046 0-5.841.92-8.158 2.549l-7.393-25.11c2.174 1.345 4.649 2.166 7.393 2.166 7.863 0 14.276-6.413 14.276-14.276s-6.413-14.277-14.276-14.277c-5.222 0-9.747 2.809-12.237 7.01-2.493-4.139-7.056-7.01-12.237-7.01-7.863 0-14.276 6.413-14.276 14.277s6.413 14.276 14.276 14.276c2.54 0 4.818-.746 6.883-1.912l-6.883 24.984c-2.328-1.659-5.084-2.677-8.158-2.677-7.864 0-14.277 6.413-14.277 14.277s6.413 14.276 14.277 14.276c.384 0 .771-.098 1.147-.127l-6.883 25.366c-2.609-2.915-6.362-4.844-10.58-4.844-7.864 0-14.277 6.413-14.277 14.277s6.413 14.276 14.277 14.276c1.475 0 2.868-.349 4.206-.765l-21.797 79.923-17.674-33.2c6.754 0 11.117-6.394 11.117-13.07 0-8.221-5.66-14.453-13.524-14.453-3.549 0-7.841 1.42-10.335 3.57l-14.15-24.092c7.33-.581 13.13-6.67 13.13-14.15 0-7.863-6.414-14.276-14.277-14.276-4.915 0-9.294 2.584-11.854 6.374l-15.934-27.278c1.055.249 2.182.51 3.314.51 7.863 0 14.277-6.414 14.277-14.277s-6.414-14.277-14.277-14.277c-6.583 0-12.008 4.51-13.64 10.58l-17.09-29.649c7.507-.399 12.375-6.037 12.375-13.642 0-7.864-6.414-14.277-14.277-14.277-5.221 0-9.362 3.637-12.435 7.434-7.22-7.553-8.461-7.56-12.04-7.434-7.858.277-14.276 6.413-14.276 14.277s6.413 14.276 14.277 14.276h.127l-20.698 32.632c-.979-6.91-6.841-12.237-14.021-12.237-7.864 0-14.277 6.413-14.277 14.277s6.413 14.276 14.277 14.276c1.92 0 3.68-.457 5.353-1.147l-17.08 29.7c-2.312-4.746-7.116-8.158-12.747-8.158-7.864 0-14.277 6.413-14.277 14.277s6.413 14.276 14.277 14.276c.383 0 .771-.098 1.147-.127l-14.787 25.748c-2.613-3.11-6.457-5.226-10.835-5.226-7.862 0-14.276 6.413-14.276 14.277 0 7.054 5.121 12.89 11.855 14.022l-15.855 28.138-16.777-53.632-5.609-19.63c1.25.355 2.588.636 3.952.636 7.925 0 14.404-6.478 14.404-14.404s-6.479-14.404-14.404-14.404c-4.195 0-7.954 1.846-10.58 4.717l-7.139-24.984c.46.044.931.127 1.403.127 7.925 0 14.404-6.478 14.404-14.404s-6.48-14.404-14.404-14.404c-3.24 0-6.264 1.12-8.668 2.932l-7.139-25.366c2.215 1.397 4.839 2.294 7.648 2.294 7.926 0 14.404-6.478 14.404-14.404s-6.478-14.404-14.404-14.404c-5.227 0-11.008 2.46-13.512 6.647 0 0-2.895-3.572-4.934-4.74z" fill="#fff" stroke="#000" stroke-miterlimit="6" stroke-width="4.0768"/><path d="m71.777 380.098 455.985.49" fill="none" stroke="#000" stroke-width="1.96"/><g fill="none" stroke="#000" stroke-width="2"><path d="m70.51 419.994 457.376-.203M72.149 537.143l454.72-.245M71.659 497.698l456.68.49" stroke-width="1.96"/></g><path d="M73.129 457.518h453.25" fill="none" stroke="#000" stroke-width="1.96"/><path d="m849.18 344.33-61.934-.225 31.161-53.524z" stroke="#000" fill="none" transform="matrix(3.4986 0 0 3.603 -2561.993 -910.63)"/><path d="m501.105 314.745-30.52-142.07-33.198 142.962z" fill="#fff" stroke="#000" stroke-linecap="round" stroke-miterlimit="8" stroke-width="2.94"/><path d="m486.287 316.529-17.313-73.713-17.312 74.07zM528.133 246.93v70.857h-30.877zM414.09 246.743l-.357 70.858h31.056z" fill="#fff" stroke="#000" stroke-linecap="round" stroke-miterlimit="8" stroke-width="2.94"/><path fill="#fff" stroke="#000" stroke-width="4.018" d="M393.452 312.243h146.902v24.53H393.452z"/><path d="M300.806 225.957c-16.604-.427-17.653 15.123-10.375 25.46.182.26.1.625.116.94-.312-.017-.69.086-.933-.118-11.3-9.455-25.64-6.774-25.297 10.442.298 14.921 14.966 17.686 25.297 10.443.26-.182.62-.101.933-.118-.016.315.104.71-.116.94-10.754 11.082-3.954 25.792 10.375 25.46 14.867-.345 20.743-15.58 10.375-25.46-.23-.22-.1-.625-.116-.94.312.017.668-.058.933.118 13.024 8.608 25.284 4.96 25.296-10.443.018-20.042-16.024-16.051-25.296-10.442-.272.165-.62.101-.933.118.016-.315-.089-.696.116-.94 12.415-14.738 1.271-26.176-10.375-25.46z" stroke="#000" stroke-width="3.7436" fill="none"/><path d="M955.25 365.25c0 7.543-7.956 13.75-17.625 13.75S920 372.793 920 365.25s7.956-13.75 17.625-13.75 17.625 6.207 17.625 13.75z" stroke="#000" fill="none" transform="matrix(2.2558 0 0 2.9101 -1814.253 -800.263)"/><path d="M958.84 366.31c0 7.952-6.783 14.496-15.026 14.496s-15.026-6.544-15.026-14.496 6.783-14.496 15.026-14.496 15.026 6.544 15.026 14.496z" stroke="#000" fill="none" transform="matrix(3.602 0 0 3.7578 -3098.837 -1113.912)"/><g fill="#fff" stroke="#000"><path d="M470.55 350.14c-8.99 0-19.9 12.636-19.9 30.094v93.262h38.542v-93.262c0-16.23-9.647-30.094-18.641-30.094z" fill-rule="nonzero" stroke-width="4.07896"/><path stroke-width="3.3855368" d="M451.339 455.622h37.388v17.209h-37.388z"/></g><path d="M295.118 332.42v22.817h-20.012v12.238h20.012v33.652c-37.395 26.16-61.268 50.874-64.34 74.186v117.776h137.289s.355-115.993 0-117.776c-5.252-26.41-26.344-52.04-59.942-74.385v-33.453h20.522v-12.238h-20.522v-22.816z" fill="#fff" fill-rule="nonzero" stroke="#000" stroke-width="4.841200000000001"/><g fill="none" stroke="#000"><path d="M309.925 483.686h44.868M245.722 483.686h43.824" stroke-width="4.07896"/></g><path d="M301.185 418.18c-30.428 22.705-52.513 47.151-55.012 67.383v102.214h107.79c-1.138-.57.089-100.803 0-102.214-1.215-19.447-30.418-50.059-52.774-67.382z" stroke="#000" stroke-width="4.067" fill="none"/><g fill="none" stroke="#000"><path d="M277.293 474.875v17.613M320.122 473.896v18.592" stroke-width="4.07896"/><path d="M311.801 555.068h41.132" stroke-width="3.9158016"/><path d="M320.122 546.38v17.225" stroke-width="3.6302744000000002"/><path d="M246.538 555.068h41.132" stroke-width="3.9158016"/><path d="M279.332 546.38v17.225" stroke-width="3.6302744000000002"/></g><path d="m301.098 418.3.106 174.395" fill="none" stroke="#000" stroke-width="4.07896"/><path d="m311.679 525.593-21.451.236" fill="none" stroke="#000" stroke-width="3.6710640000000003"/><path d="m161.133 312.615-30.52-142.07-33.198 142.962z" fill="#fff" stroke="#000" stroke-linecap="round" stroke-miterlimit="8" stroke-width="2.94"/><path d="m146.315 314.399-17.312-73.713-17.313 74.07zM185.221 244.8v70.857h-30.877zM73.138 244.613l-.357 70.858h31.056z" fill="#fff" stroke="#000" stroke-linecap="round" stroke-miterlimit="8" stroke-width="2.94"/><path fill="#fff" stroke="#000" stroke-width="4.018" d="M58.97 312.243h146.902v24.53H58.97z"/><path d="M192.199 336.978v240.345M403.879 336.978V576.5" fill="none" stroke="#000" stroke-width="2.94"/><g fill="#fff" stroke="#000"><path stroke-width="3.0968" d="M201.352 587.25h196.774v21.375H201.352z"/><path d="M131.008 351.178c-9.475.035-19.901 11.657-19.901 30.093v93.264h38.541V381.27c0-19.041-8.7-30.13-18.64-30.093z" fill-rule="nonzero" stroke-width="4.0768"/><path stroke-width="3.4006000000000003" d="M111.77 456.655h37.39v17.21h-37.39z"/></g><g fill="none" stroke="#000"><path d="M94.199 337.713v41.999M172.599 337.713v43.365M94.199 420.033v37.485M172.599 419.543v37.975M94.199 497.64v39.254M172.599 496.718v39.935M133.399 536.614v40.222" stroke-width=".98"/></g><path fill="#fff" stroke="#000" stroke-width="4.0768" d="M57.038 577.548h151.44v34.732H57.038z"/><g fill="none" stroke="#000"><path d="m133.399 497.414.245-22.008M221.599 330.118v50.96M368.599 330.118v50.96M368.599 420.278v37.24M221.599 420.278v37.24M250.999 381.078v39.2M339.199 381.078v39.2M427.399 337.958v43.12M427.399 420.278v37.24M427.399 498.678v38.103M505.799 337.958v43.12M505.799 420.278v37.24M505.799 498.678v37.24M466.599 537.878v39.2" stroke-width=".98"/></g><path fill="#fff" stroke="#000" stroke-width="4.0768" d="M391.521 577.548h151.44v34.732H391.52z"/><path d="M466.599 498.678v-25.48" fill="none" stroke="#000" stroke-width=".98"/><g><path d="M3.96 5.017v452.812c0 164.115 132.547 297.156 296.04 297.156s296.04-133.04 296.04-297.156V5.016z" fill="none" stroke="#000" stroke-width="5.9208"/></g></svg>
